!!!OTL: 447a. Reif und Schnee.
!!!ARE: Europa, Mitteleuropa, Deutschland
!!!SCT: E0447
!!!TXL: @@DE
!!!YEM: Copyright 1995, estate of Helmut Schaffrath.
**kern	**text
*ICvox	*
*M4/4	*
*met(c)	*
*k[f#c#g#]	*
*A:	*
!LO:TX:a:t=M. Franck, Fasc. quodl. 1611, Nr. 7. (Aus 4 Stellen ʒuſammengeſetʒt).	!
{4e	Nu
=1	=1
4a	fall
4a	du
4b	Reif,
4b	du
=2	=2
4cc#	kal-
4cc#	-ter
4cc#}	Schnee,
{4b	fall
=3	=3
4a	mir
4b	auf
4cc#	mei-
4dd	-nen
=4	=4
2.ee}	Fuß
{4ee	Das
=5	=5
4cc#	Mägdlein
4cc#	.
4cc#	iſt_nicht
4b	über
=6	=6
4a	hun-
4b/	-dert
4cc#}	Meil',
{4cc#	und
=7	=7
4b/	das
4a	mir
4a	wer-
4b/	-den
=8	=8
2.a;}	muß.
==	==
!!!AGN: Liebes - Lied, Untreue
!!!ONB: ESAC (Essen Associative Code) Database: ERK1
!!!AMT: simple quadruple
!!!AIN: vox
!!!EED: Helmut Schaffrath
!!!EEV: 1.0
!!!GTL: Liebeslieder [Alte (aus dem 13. bis 17. Jahrh.) mit ihrem jungen Nachwuchs]
!!!URL-scan: https://rosdok.uni-rostock.de/mcrviewer/recordIdentifier/rosdok_ppn745177662/iview2/phys_0269.iview2?x=-778.7160746633431&y=763.6463070198661&scale=0.3980252647138593&rotation=0&layout=singlePageLayout
!!!ENC: Anna Maria Matuszewska
!!!EEV: 2024/10/12
*-	*-
